X:1
T: Bullenbridge
C:M. Shoolbraid (1-16) and B. Shawyer (17-32)
R:Reel
Q:232
K:G
M:4/4
L:1/16
|:e4|"G"d8 B4A2G2|"C"E4G4 "G"D4G4|"C"E4G4 "G"D4d4|"Am"c2B2 A2G2 "D7"A4e4|
"G"d8 B4A2G2|"C"E4G4 "G"D4B,4|"Am"C4E4 "D7"D4d2c2|"G"B4G4 G4:|
|:d4|"G"g8 d4c2B2|"C"e4g4 "G"d4B4|"C"e4g4 "G"d4B4|"Am"A4B4 "D7"c2d2 e2f2|
"G"g8 d4c2B2|"C"e4g4 "G"d4B4|"Am"c4A4 "D7"d4d2c2|"G"B4G4 G4:|
